X:1
T:12 Lieder
T:Du, Herr, der alles wohl gemacht
T:Moritz Hauptmann
T:Friedrich Rückert
T:Du, Herr, der alles wohl gemacht
T:Op. 49,4
T:CPDL - Creative Commons Attribution Non Commercial 3.0
T:CPDL - Creative Commons Attribution Non Commercial 3.0
C:Moritz Hauptmann
Z:Friedrich Rückert
Z:CPDL - Creative Commons Attribution Non Commercial 3.0
%%score [ ( 1 2 ) 3 4 ( 5 6 ) ]
L:1/8
Q:1/4=90
M:4/4
K:Bb
V:1 treble-8 nm="Tenor"
V:2 treble-8 
V:3 treble-8 nm="Tenor\n2" snm="T\n2\n"
V:4 bass nm="Bass\n1" snm="B\n1"
V:5 bass nm="Bass"
V:6 bass 
V:1
"^Andante"!mf! F2 | B2 d2!<(! f2 d2!<)! | g3 g f2!p! dd | f2 dd B2 fe | d2 c2 z!mf! A!<(!c^c!<)! | %5
w: 1.~Du|Herr, der al- les|wohl ge- macht! ich will|nichts, was nicht du willst *|schen- ken. Du machst es|
w: 2.~Mich|geb' ich hier in|dei- ne Hand, will mich|ganz dei- ner Huld ver- *|trau- en; in Freud' und|
w: 3.~O|zie- he nicht die|Hand zu- rück, die du|zum Heil mir aus- ge- *|stre- cket; du lei- test|
!>(! d3!>)! B!<(! G2!<)! e2 |!>(! d4!>)! z B"^cresc."d=e |!f! f3 d!<(! B2 d2!<)! |1 %8
w: nicht, wie wir's ge-|dacht; du machst es|bes- ser, als wir's|
w: Leid zu dir ge-|wandt, will ich auf|dich, auf dich nur|
w: mich zu mei- nem|Glück, gib, dass kein|Weg da- zu mich|
!>(! d>c!>)! B2 z2 :|2!>(! d>c!>)! B2 z2 BB ||!p! B6 B2 | B4!<(! B2 e2!<)! |!f!"^dim." d6 cB | %13
w: den- * ken.|3.~schre- * cket. Zie- he|nicht die|Hand, nicht die|Hand zu- *|
w: bau- * en.|||||
w: |||||
 d8 |] %14
w: rück.|
w: |
w: |
V:2
 F2 | F2 B2 B2 B2 | (B2 c)c d2 BB | c2 BB B2 dc | B2 A2 x AAG | A3 B B2 A2 | A4 x GB^c | %7
 d3 B F2 B2 |1 A2 B2 x2 :|2 x8 || x8 | x8 | x8 | x8 |] %14
V:3
 z2 | z8 | z8 | z8 | z8 |!>(! z8!>)! |!>(! z8!>)! | z8 |1!>(! z4!>)! z2 :|2!>(! A2!>)! B2 z4 || %10
w: |||||||||3.~schre- cket.|
 z2!p! ^FF G2 _A2 | G4!<(! B2 B2!<)! |!f!"^dim." (B4 F2) F>B | B8 |] %14
w: Zie- he nicht die|Hand, nicht die|Hand _ zu- *|rück.|
V:4
 z2 | z8 | z8 | z8 | z8 |!>(! z8!>)! |!>(! z8!>)! | z8 |1!>(! z4!>)! z2 :|2!>(! F,>E,!>)! D,2 z4 || %10
 z2!p! D,D, E,2 F,2 | E,4!<(! E,2 G,2!<)! |!f!"^dim." F,6 E,D, | F,8 |] %14
V:5
!mf! F,2 | F,2 F,2!<(! F,2 _A,2!<)! | (G,2 =A,)A, B,2!p! B,B, | A,2 F,^F, G,2 G,2 | %4
w: ||||
 =F,2 F,2 z!mf! F,!<(!A,G,!<)! |!>(! ^F,3!>)! F,!<(! G,2!<)! G,2 |!>(! ^F,4!>)! z G,"^cresc."B,B, | %7
w: |||
!f! B,3 F,!<(! F,2 F,2!<)! |1!>(! F,>E,!>)! D,2 z2 :|2!>(! [F,,F,]2!>)! B,,2 z4 || %10
w: ||3.~schre- cket.|
 z4 z2!p! B,,B,, | E,2 B,2!<(! G,2 E,2!<)! |!f!"^dim." B,,6 B,,2 | B,,8 |] %14
w: Zie- he|nicht die Hand, die|Hand zu-|rück.|
V:6
 F,2 | D,2 B,,2 D,2 F,2 | E,3 E, B,,2 G,G, | F,2 B,,B,, E,2 C,2 | F,2 F,2 x F,F,E, | %5
 D,2 D,2 G,2 C,2 | D,4 x G,G,_G, | F,2 F,2 D,2 B,,2 |1 [F,,F,]2 B,,2 x2 :|2 x8 || x8 | x8 | x8 | %13
 x8 |] %14

